Origami/16x16/mimetypes/application-pgp-encrypted.svg

<svg xmlns="http://www.w3.org/2000/svg" width="16" height="16" version="1.1" viewBox="0 0 16 16">
 <path fill="#e4e4e4" d="m2.75 1c-0.4172 0-0.75 0.3328-0.75 0.75v13.5c0 0.417 0.3328 0.75 0.75 0.75h10.5c0.418 0 0.75-0.332 0.75-0.75v-9.25l-4.125-0.875-0.875-4.125z"/>
 <path fill="#fafafa" d="m9 1v4.1667c0 0.4584 0.3749 0.8333 0.8333 0.8333h4.1667z"/>
 <path style="opacity:.5" d="M 8,8 C 6.9219,8 6,8.5081 6,9.5146 v 1.4851 H 5.5 c 0,0 -0.5,0 -0.5,0.5 V 14.55 C 5,15 5.2188,15 5.4844,15 h 4.8645 c 0.266,0 0.651,0 0.651,-0.448 v -3.0519 c 0,-0.5 -0.5,-0.5 -0.5,-0.5 0,0 -0.07792,3.16e-4 -0.15107,3.16e-4 H 9.9999 v -1.4851 c 0,-1.0062 -0.9219,-1.5143 -2,-1.5143 z M 8,9 C 8.6667,8.9951 9,9.263 9,9.6577 v 1.342 H 7 V 9.6577 C 7,9.263 7.3333,9.0049 8,9 Z"/>
</svg>

<?xml version="1.0" encoding="UTF-8" standalone="no"?>
<svg
   xmlns:dc="http://purl.org/dc/elements/1.1/"
   xmlns:cc="http://creativecommons.org/ns#"
   xmlns:rdf="http://www.w3.org/1999/02/22-rdf-syntax-ns#"
   xmlns:svg="http://www.w3.org/2000/svg"
   xmlns="http://www.w3.org/2000/svg"
   viewBox="0 0 16 16"
   version="1.1"
   width="16px"
   height="16px"
   id="svg2">
  <defs
     id="defs10" />
  <metadata
     id="metadata17">
    <rdf:RDF>
      <cc:Work
         rdf:about="">
        <dc:format>image/svg+xml</dc:format>
        <dc:type
           rdf:resource="http://purl.org/dc/dcmitype/StillImage" />
      </cc:Work>
    </rdf:RDF>
  </metadata>
  <path
     style="fill:#cccccc"
     d="M 2.75,1 C 2.3328,1 2,1.3328 2,1.75 l 0,13.5 C 2,15.667 2.3328,16 2.75,16 l 10.5,0 C 13.668,16 14,15.668 14,15.25 L 14,6 9.875,5.125 9,1 Z"
     id="path5" />
  <path
     style="fill:#f8f8f0"
     d="M 9,1 9,5.1666667 C 9,5.6250667 9.3749333,6 9.833333,6 L 14,6 Z"
     id="path7" />
  <path
     d="m8 8c-1.0781 0-2 0.5081-2 1.5146v1.4851h-0.5s-0.5 0-0.5 0.5v2.0504c0 0.45 0.2188 0.45 0.4844 0.45h4.8645c0.266 0 0.651 0 0.651-0.448v-2.052c0-0.5-0.5-0.5-0.5-0.5s-0.07792 0.000316-0.15107 0.000316h-0.34893v-1.4851c0-1.0062-0.9219-1.5143-2-1.5143zm0 1c0.6667-0.0049 1 0.263 1 0.6577v1.342h-2v-1.342c0-0.3947 0.3333-0.6528 1-0.6577z"
     fill-opacity=".50196"
     id="path9" />
  <path
     style="fill:#ffffff;fill-opacity:0.2"
     d="M 2.75,1 C 2.3328,1 2,1.3328 2,1.75 l 0,0.6 C 2,1.9328 2.3328,1.6 2.75,1.6 L 9,1.6 9,1 Z"
     id="path11" />
</svg>
